X: 3585
T: Bill Black's
R: hornpipe
M: 4/4
K: Gmajor
|:dc|BGBd gdcB|Acbg fedc|BGBd gdBG|F2 E2 Dd^cd|
BGBd gdcB|Acbg fedc|BdGB AcFA|G2 G2 G2:|
|:Bc|dcBA GBdg|e2 c2 c2 cd|edcB Acag|f2 dd d2 ef|
g2 ge f2 fd|efge dcBA|dBGB cAFA|G2 G2 G2:|

